src/lib/packages/icons/src/assets/filled/rotate-left.svg

<svg width="24" height="24" viewBox="0 0 24 24" fill="none" xmlns="http://www.w3.org/2000/svg">
<path d="M22 12C22 17.514 17.514 22 12 22C8.178 22 4.74592 19.8721 3.04492 16.4451C2.79892 15.9501 3.00109 15.35 3.49609 15.105C3.98909 14.858 4.59094 15.0619 4.83594 15.5559C6.19694 18.2979 8.942 20.001 12 20.001C16.411 20.001 20 16.412 20 12.001C20 7.58998 16.411 4.00098 12 4.00098C9.113 4.00098 6.49709 5.56598 5.09009 8.00098H8C8.553 8.00098 9 8.44898 9 9.00098C9 9.55298 8.553 10.001 8 10.001H3C2.447 10.001 2 9.55298 2 9.00098V4.00098C2 3.44898 2.447 3.00098 3 3.00098C3.553 3.00098 4 3.44898 4 4.00098V6.00903C5.853 3.53603 8.797 2.00098 12 2.00098C17.514 1.99998 22 6.486 22 12Z" fill="currentColor"/>
</svg>

<svg xmlns="http://www.w3.org/2000/svg" width="24" height="24" fill="none"><path fill="currentColor" d="M22 12c0 5.514-4.486 10-10 10a9.94 9.94 0 0 1-8.955-5.555.999.999 0 1 1 1.79-.89A7.952 7.952 0 0 0 12 20.002c4.411 0 8-3.589 8-8s-3.589-8-8-8a7.993 7.993 0 0 0-6.91 4H8a1 1 0 1 1 0 2H3a1 1 0 0 1-1-1v-5a1 1 0 1 1 2 0V6.01a10.006 10.006 0 0 1 8-4.008C17.514 2 22 6.486 22 12Z"/></svg>
